assets/sonr-icons/gift.svg

<svg xmlns="http://www.w3.org/2000/svg" width="24" height="24" fill="none" viewBox="0 0 24 24"><path fill="#000" fill-rule="evenodd" d="M5.76101 4.31994C5.76101 4.64951 5.8168 4.97352 5.92331 5.27894L3.90627 5.27894C3.66393 5.27891 3.42793 5.27888 3.22802 5.29528C3.0081 5.31332 2.74979 5.35586 2.48957 5.48838C2.12509 5.67376 1.83444 5.96843 1.65113 6.32521L1.65057 6.3263C1.51685 6.58737 1.47434 6.84702 1.45634 7.06664C1.43995 7.26664 1.43998 7.50285 1.44 7.74523L1.44 9.53468C1.43998 9.77702 1.43995 10.013 1.45635 10.2129C1.47438 10.4327 1.51687 10.6909 1.64921 10.9509C1.83458 11.3156 2.12935 11.6064 2.48627 11.7898L2.48737 11.7904C2.74843 11.9241 3.00809 11.9666 3.2277 11.9846C3.27026 11.9881 3.31446 11.9908 3.36001 11.993L3.36001 18.5649C3.35999 19.0714 3.35997 19.5079 3.38931 19.8674C3.42029 20.2469 3.48907 20.6248 3.6737 20.9879C3.94972 21.5294 4.39132 21.9706 4.93286 22.2467C5.29606 22.4313 5.67347 22.4997 6.05295 22.5306C6.41254 22.56 6.84904 22.56 7.35498 22.5599H16.645C17.1514 22.56 17.588 22.56 17.9475 22.5306C18.327 22.4997 18.7049 22.4309 19.068 22.2462C19.6095 21.9702 20.0507 21.5286 20.3267 20.9871C20.5114 20.6239 20.5797 20.2465 20.6107 19.867C20.64 19.5074 20.64 19.0709 20.64 18.565V11.9931C20.6861 11.9909 20.7309 11.9881 20.774 11.9846C20.9938 11.9666 21.2519 11.9241 21.512 11.7917C21.8767 11.6064 22.1675 11.3116 22.3509 10.9547L22.3514 10.9536C22.4852 10.6925 22.5277 10.4329 22.5457 10.2132C22.5621 10.0133 22.562 9.7771 22.562 9.53474V7.74518C22.562 7.50285 22.5621 7.26685 22.5457 7.06696C22.5276 6.84716 22.4851 6.58902 22.3528 6.32895C22.1674 5.96426 21.8727 5.67345 21.5157 5.49006L21.5146 5.4895C21.2536 5.35578 20.9939 5.31328 20.7743 5.29527C20.5743 5.27888 20.3381 5.27891 20.0957 5.27894L18.0767 5.27894C18.1832 4.97352 18.239 4.64951 18.239 4.31994C18.239 3.56056 17.9428 2.83067 17.4125 2.28981L17.4115 2.28885C16.8791 1.74741 16.1543 1.43994 15.394 1.43994C13.6712 1.43994 12.6023 2.60945 12 3.62102C11.3977 2.60945 10.3288 1.43994 8.60601 1.43994C7.84645 1.43994 7.11992 1.74689 6.58755 2.28982C6.05703 2.83086 5.76101 3.56182 5.76101 4.31994ZM7.95846 3.63407C8.13209 3.45699 8.36556 3.35994 8.60601 3.35994C9.38328 3.35994 9.98197 3.91269 10.4483 4.77615C10.5394 4.94468 10.6192 5.11474 10.6886 5.27894H8.56374C8.33836 5.26827 8.1219 5.1725 7.95846 5.00582C7.7828 4.82667 7.68101 4.58056 7.68101 4.31994C7.68101 4.06006 7.78298 3.81302 7.95846 3.63407ZM4.32001 10.0799C4.33484 10.0799 4.34959 10.0803 4.36425 10.0809H11.04V7.19994H8.60601C8.58095 7.19994 8.55592 7.19961 8.53094 7.19894H3.93701C3.65209 7.19894 3.49664 7.19969 3.38499 7.20885L3.3711 7.21007L3.36992 7.22349C3.36076 7.3353 3.36001 7.49104 3.36001 7.77594V9.50394C3.36001 9.78886 3.36076 9.94431 3.36992 10.056L3.37114 10.0699L3.38456 10.071C3.49637 10.0802 3.65211 10.0809 3.93701 10.0809H4.27577C4.29043 10.0803 4.30518 10.0799 4.32001 10.0799ZM5.30295 19.7112C5.28075 19.4392 5.28001 19.0818 5.28001 18.5279V12.0009H11.04V20.6399H7.39201C6.8387 20.6399 6.48123 20.6392 6.20906 20.617C5.94852 20.5957 5.85132 20.5597 5.80343 20.5354C5.62337 20.4435 5.47647 20.2965 5.38456 20.1165C5.3602 20.0685 5.32418 19.9714 5.30295 19.7112ZM17.7913 20.617C17.5193 20.6392 17.1618 20.6399 16.608 20.6399H12.96V12.0009H18.72V18.5279C18.72 19.0812 18.7193 19.4387 18.6971 19.7109C18.6758 19.9715 18.6397 20.0687 18.6154 20.1166C18.5235 20.2966 18.3766 20.4435 18.1965 20.5354C18.1484 20.5598 18.0513 20.5958 17.7913 20.617ZM19.6856 10.08C19.6985 10.08 19.7114 10.0804 19.7242 10.0809H20.065C20.3499 10.0809 20.5054 10.0802 20.617 10.071L20.6309 10.0698L20.6321 10.0564C20.6413 9.94458 20.642 9.78884 20.642 9.50394V7.77594C20.642 7.49103 20.6413 7.33557 20.6321 7.22393L20.6309 7.21003L20.6175 7.20886C20.5056 7.19969 20.3499 7.19894 20.065 7.19894H15.4691C15.4441 7.19961 15.4191 7.19994 15.394 7.19994H12.96V10.0809H19.6358C19.6504 10.0803 19.6652 10.0799 19.68 10.0799C19.6819 10.0799 19.6837 10.0799 19.6856 10.08ZM16.0416 5.00582C15.8781 5.1725 15.6617 5.26827 15.4363 5.27894H13.3115C13.3808 5.11474 13.4607 4.94468 13.5517 4.77615C14.018 3.91269 14.6167 3.35994 15.394 3.35994C15.6334 3.35994 15.8664 3.45626 16.0419 3.63445C16.2174 3.81356 16.319 4.05951 16.319 4.31994C16.319 4.58056 16.2172 4.82667 16.0416 5.00582ZM3.35789 7.20079L3.36 7.19974L2.50501 6.76394L3.35789 7.20079Z" clip-rule="evenodd"/></svg>

<svg xmlns="http://www.w3.org/2000/svg" width="24" height="24" fill="none"><path fill="currentColor" fill-rule="evenodd" d="M5.761 4.32c0 .33.056.654.162.959H3.906c-.242 0-.478 0-.678.016-.22.018-.478.06-.738.193-.365.186-.656.48-.839.837v.001c-.134.261-.177.521-.195.74-.016.2-.016.437-.016.68v1.789c0 .242 0 .478.016.678.018.22.06.478.193.738.186.365.48.655.837.839h.001c.261.134.521.177.74.195l.133.008v6.572c0 .506 0 .943.03 1.302.03.38.1.758.284 1.12.276.542.717.984 1.259 1.26.363.184.74.253 1.12.284.36.029.796.029 1.302.029h9.29c.506 0 .943 0 1.303-.03.379-.03.757-.1 1.12-.284a2.9 2.9 0 0 0 1.259-1.259c.184-.363.253-.74.284-1.12.029-.36.029-.796.029-1.302v-6.572l.134-.008c.22-.018.478-.06.738-.193.365-.186.656-.48.839-.837v-.001c.134-.261.177-.521.195-.74.016-.2.016-.437.016-.68V7.746c0-.242 0-.478-.016-.678a1.9 1.9 0 0 0-.193-.738 1.92 1.92 0 0 0-.837-.839h-.001a1.9 1.9 0 0 0-.74-.195c-.2-.016-.437-.016-.68-.016h-2.018a2.91 2.91 0 0 0-.665-2.99 2.83 2.83 0 0 0-2.018-.85c-1.723 0-2.792 1.17-3.394 2.182-.602-1.012-1.671-2.181-3.394-2.181-.76 0-1.486.307-2.018.85a2.9 2.9 0 0 0-.827 2.03m2.197-.686a.9.9 0 0 1 .648-.274c.777 0 1.376.553 1.842 1.416q.136.255.24.503H8.565a.9.9 0 0 1-.606-.273.98.98 0 0 1-.277-.686c0-.26.102-.507.277-.686M4.32 10.08h6.72V7.2H8.606l-.075-.001H3.937c-.285 0-.44 0-.552.01l-.014.001-.001.013c-.01.112-.01.268-.01.553v1.728c0 .285 0 .44.01.552l.001.014.014.001c.111.01.267.01.552.01h.339zm.983 9.631c-.022-.272-.023-.63-.023-1.183V12h5.76v8.639H7.392c-.553 0-.91 0-1.183-.023-.26-.021-.358-.057-.406-.082a.96.96 0 0 1-.418-.419c-.025-.047-.06-.145-.082-.405m12.488.906c-.272.022-.63.023-1.183.023H12.96V12h5.76v6.528c0 .553 0 .91-.023 1.183-.021.26-.057.358-.082.406a.96.96 0 0 1-.418.418c-.049.025-.146.06-.406.082m1.895-10.537h.379c.285 0 .44 0 .552-.009l.014-.001.001-.014c.01-.111.01-.267.01-.552V7.776c0-.285 0-.44-.01-.552l-.001-.014-.014-.001a8 8 0 0 0-.552-.01H12.96v2.882h6.676zm-3.644-5.074a.9.9 0 0 1-.606.273h-2.124q.104-.248.24-.503c.466-.863 1.065-1.416 1.842-1.416.24 0 .472.096.648.274a.98.98 0 0 1 .277.686.98.98 0 0 1-.277.686M3.358 7.2 3.36 7.2l-.855-.436z" clip-rule="evenodd"/></svg>
